!!!COM: Bach, Johann Sebastian!!!COM: Bach, Johann Sebastian
!!!OTL: 9. Ermuntre dich, mein schwacher Geist!!!OTL: 9. Ermuntre dich, mein schwacher Geist
!!!ONM: No. 9!!!ONM: No. 9
!!!OCL: Erk!!!OCL: Erk
!!!SCA: BWV 248.12!!!SCA: BWV 248.12
!!!YOE: Riemenschneider, Albert!!!YOE: Riemenschneider, Albert
!!!OPR: 371 Harmonized Chorales and 69 Chorale Melodies with Figured Bass!!!OPR: 371 Harmonized Chorales and 69 Chorale Melodies with Figured Bass
!!!OPT: Bach Chorale Harmonizations!!!OPT: Bach Chorale Harmonizations
!!!ONB: From the "Christmas Oratorio", Part II, No. 3!!!ONB: From the "Christmas Oratorio", Part II, No. 3
**kern	**kern	**kern	**kern	**harm	**root	**kern
!bass	!tenor	!alto	!sprno	!	!	!
*Iorgan	*Iorgan	*Iorgan	*Iorgan	*Iorgan	*Iorgan	*
*>[A,A,B]	*>[A,A,B]	*>[A,A,B]	*>[A,A,B]	*>[A,A,B]	*>[A,A,B]	*>[A,A,B]
*>norep[A,B]	*>norep[A,B]	*>norep[A,B]	*>norep[A,B]	*>norep[A,B]	*>norep[A,B]	*>norep[A,B]
*>A	*>A	*>A	*>A	*>A	*>A	*>A
*k[f#]	*k[f#]	*k[f#]	*k[f#]	*k[f#]	*k[f#]	*k[f#]
*G:	*G:	*G:	*G:	*G:	*G:	*G:
*met(C)	*met(C)	*met(C)	*met(C)	*met(C)	*met(C)	*met(C)
*M4/4	*M4/4	*M4/4	*M4/4	*M4/4	*M4/4	*M4/4
*MM60	*MM60	*MM60	*MM60	*MM60	*MM60	*MM60
8G	4B	4d	4g	I	4GG	4G 4b 4dd
8F#	.	.	.	.	.	.
=1	=1	=1	=1	=1	=1	=1
4E	8B	4e	4g	vi	4EE	4E 4g 4b
.	[8c	.	.	.	.	.
4D	8c]	4f#	4a	V7	4DD	4D 4f# 4a 4cc
.	8d	.	.	.	.	.
4G	8B	8d	8b	I	8GG	8G 8b 8dd
.	8A	8e	8cc#	V7d/V	8AA	8a 8cc# 8ee 8G
8F#	4A	4f#	4dd	Vb	4DD	4d 4F# 4a
8G	.	.	.	.	.	.
=2	=2	=2	=2	=2	=2	=2
4A	4A	8e	4dd	Vc	4DD	4d 4f# 4A
.	.	8f#	.	.	.	.
4AA	4A	4g	4cc#	V7/V	4AA	4A 4cc# 4ee 4gg
4D;	4A;	4f#;	4dd;	V;	4DD;	4D; 4f#; 4a;
4D#	8B	4f#	4b	Vb/vi	4BB	4b 4D# 4ff#
.	8A	.	.	.	.	.
=3	=3	=3	=3	=3	=3	=3
8E	8G	4e	4ccn	IVb	8CC	8c 8E 8g
8F#	8A	.	.	viio7	8FF#	8F# 8a 8cc 8ee
8G	8B	8d	4b	I	8GG	8G 8b 8dd
8C	8c	8e	.	IV7	8CC	8C 8e 8g 8b
8c	4dn	4f#	4a	V7d	4DD	4d 4f# 4a 4C
8B	.	.	.	.	.	.
8A	4d	[4g	4b	I	4GG	4G 4b 4dd
8G	.	.	.	.	.	.
=4	=4	=4	=4	=4	=4	=4
4d	4.d	4g]	2a	V	2DD	2D 2f# 2a
4D	.	4f#	.	.	.	.
.	8c	.	.	.	.	.
4G;	4B;	4d;	4g;	I;	4GG;	4G; 4b; 4dd;
=:|!	=:|!	=:|!	=:|!	=:|!	=:|!	=:|!
*>B	*>B	*>B	*>B	*>B	*>B	*>B
4D	8d	8f#	4a	V	4DD	4D 4f# 4a
.	8e	8g	.	.	.	.
=5	=5	=5	=5	=5	=5	=5
8d	8f#	4.a	4a	V	8DD	8D 8f# 8a
8c	8e	.	.	iib	8AA	8a 8C 8ee
4B	4d	.	4b	viiob/ii	4GG#	4g# 4B 4dd
.	.	8g#	.	.	.	.
4A	4e	8a	4cc	ii	4AA	4A 4cc 4ee
.	.	8g#	.	.	.	.
4D#	4f#	4a	4cc	viioD7/vi	4DD#	4D# 4f# 4a 4cc
=6	=6	=6	=6	=6	=6	=6
!!linebreak: 2!!linebreak: 2
4E	4B	4a	8b	vi	4EE	4E 4g 4b
.	.	.	8a	.	.	.
4E	8e	4g#	4b	V/ii	4EE	4E 4g# 4b
.	8d	.	.	.	.	.
4AA;	4c;	4e;	4a;	ii;	4AA;	4A; 4cc; 4ee;
8E	8Gn	8e	4b	vi	8EE	8E 8g 8b
8F#	8A	8d#	.	V7b/vi	8BB	8b 8D# 8ff# 8aa
=7	=7	=7	=7	=7	=7	=7
4G	8B	4e	4b	vib	4EE	4e 4G 4b
.	8c	.	.	.	.	.
4G#	8d	4e	4b	V7b/ii	4EE	4e 4G# 4b 4dd
.	8e	.	.	.	.	.
4A	4c	8e	8cc	ii	4AA	4A 4cc 4ee
.	.	8f#	8dd	.	.	.
4A#	4c#	8g	4ee	viioD7/iii	4AA#	4A# 4cc# 4ee 4gg
.	.	8f#	.	.	.	.
=8	=8	=8	=8	=8	=8	=8
4B	4B	8f#	4ee	iii	4BB	4B 4dd 4ff#
.	.	8g	.	.	.	.
4BB	4B	4a	4dd#	V7/vi	4BB	4B 4dd# 4ff# 4aa
4E;	4B;	4g;	4ee;	vi;	4EE;	4E; 4g; 4b;
8d	4d	4a	4ff#	V	4DD	4D 4f# 4a
8c	.	.	.	.	.	.
=9	=9	=9	=9	=9	=9	=9
8B	4d	8g	4gg	Ib	4GG	4g 4B 4dd
8A	.	8a	.	.	.	.
8G	4g	[4b	4b	I	4GG	4G 4b 4dd
8F#	.	.	.	.	.	.
8E	8G	8b]	4cc	IV7b	8CC	8c 8E 8g 8b
8F#	8A	[8a	.	viio7	8FF#	8F# 8a 8cc 8ee
8G	4B	8a]	4b	vib	4EE	4e 4G 4b
8E	.	8g	.	.	.	.
=10	=10	=10	=10	=10	=10	=10
8C#	8e	2g	2a	V7b/V	2AA	2a 2C# 2ee 2gg
8BB	8d	.	.	.	.	.
8C#	8e	.	.	.	.	.
8AA	8c#	.	.	.	.	.
4D;	4d;	4f#;	4a;	V;	4DD;	4D; 4f#; 4a;
4BB	[4d	8g	4dd	Ib	4GG	4g 4B 4dd
.	.	8f#	.	.	.	.
=11	=11	=11	=11	=11	=11	=11
4C	8d]	4e	4ee	IV	4CC	4C 4e 4g
.	8c	.	.	.	.	.
4D	8c	4f#	4dd	V7	4DD	4D 4f# 4a 4cc
.	8B	.	.	.	.	.
8E	8B	8g	4cc	IV7b	8CC	8c 8E 8g 8b
8F#	8A	8a	.	viio	8FF#	8F# 8a 8cc
4G	4G	4d	8b	I	4GG	4G 4b 4dd
.	.	.	8cc	.	.	.
=12	=12	=12	=12	=12	=12	=12
4C	8G	4e	2a	ii7b	4AA	4a 4C 4ee 4gg
.	16F#	.	.	.	.	.
.	16E	.	.	.	.	.
4D	4F#	4d	.	V	4DD	4D 4f# 4a
4GG;	4B;	4d;	4g;	I;	4GG;	4G; 4b; 4dd;
==	==	==	==	==	==	==
*-	*-	*-	*-	*-	*-	*-
!!!CDT: 1685/3//-1750/7/28!!!CDT: 1685/3//-1750/7/28
!!!OCY: Deutschland!!!OCY: Deutschland
!!!AGN: chorale!!!AGN: chorale
!!!AST: Baroque!!!AST: Baroque
!!!AIN: vox!!!AIN: vox
!!!YOY: 1941!!!YOY: 1941
!!!PPP: New York; London!!!PPP: New York; London
!!!PPR: G. Schirmer!!!PPR: G. Schirmer
!!!ENC: David Huron!!!ENC: David Huron
!!!EED: David Huron!!!EED: David Huron
!!!YEN: United States of America!!!YEN: United States of America
!!!YER: 1992!!!YER: 1992
!!!YEC: Copyright 1992 David Huron!!!YEC: Copyright 1992 David Huron
!!!YEM: Rights to all derivative electronic formats reserved.!!!YEM: Rights to all derivative electronic formats reserved.
!!!YER: March 20, 1996!!!YER: March 20, 1996
!!!AMT: simple quadruple!!!AMT: simple quadruple
!!!EEV: 1.1!!!EEV: 1.1
!!chor2scor: -l 2 -s 0.6 -o %b.pmx!!chor2scor: -l 2 -s 0.6 -o %b.pmx
